NotoEmoji/1f1f8-1f1e8.svg

<svg xmlns="http://www.w3.org/2000/svg" viewBox="0 0 36 36"><path fill="#D62828" d="M32 5h-7.833L1.129 29.785l.001.001c.152.157.317.301.493.431l.001.001L36 13.667V9c0-2.209-1.791-4-4-4z"/><path fill="#FCD856" d="M.763 29.35c.112.154.235.299.367.435L24.167 5H12L.763 29.35c-.001-.001-.001-.001 0 0z"/><path fill="#003F87" d="M12 5H4C1.791 5 0 6.791 0 9v18c0 .878.283 1.689.762 2.349L12 5z"/><path fill="#FFF" d="M2.063 30.501l.004.002L36 22.333v-8.667L1.624 30.218c.14.103.287.198.439.283z"/><path fill="#007A3D" d="M4 31h28c2.209 0 4-1.791 4-4v-4.667L2.067 30.502C2.64 30.819 3.299 31 4 31z"/></svg>

<svg viewBox="0 0 36 36" xmlns="http://www.w3.org/2000/svg"><path d="m32 5h-7.83l-23.04 24.79c.15.16.32.3.49.43l34.38-16.55v-4.67c0-2.21-1.79-4-4-4z" fill="#d62828"/><path d="m.76 29.35c.11.15.24.3.37.44l23.04-24.79h-12.17z" fill="#fcd856"/><path d="m12 5h-8c-2.21 0-4 1.79-4 4v18c0 .88.28 1.69.76 2.35z" fill="#003f87"/><path d="m2.06 30.5 33.94-8.17v-8.67l-34.38 16.56c.14.1.29.2.44.28z" fill="#fff"/><path d="m4 31h28c2.21 0 4-1.79 4-4v-4.67l-33.93 8.17c.57.32 1.23.5 1.93.5z" fill="#007a3d"/></svg>
